icons/mobile/24/svg/shield-checkmark-24.svg

<svg width="24" height="24" viewBox="0 0 24 24" fill="none" xmlns="http://www.w3.org/2000/svg">
<path d="M10.0435 3.59283C11.223 2.80546 12.7504 2.79704 13.9312 3.60748C14.4312 3.9507 14.9745 4.29823 15.5611 4.63971L16.1627 4.97955L16.8062 5.31939C17.4429 5.64514 18.0598 5.92778 18.648 6.17291C20.143 6.79554 20.969 8.38045 20.6763 9.95318L20.1089 12.9991C19.8679 14.3024 19.4236 15.6128 18.6685 16.7588L18.6675 16.7628C17.367 18.7352 15.6214 20.4076 13.7222 21.5333C12.6496 22.1687 11.3142 22.1477 10.2574 21.5196H10.2564C8.3678 20.396 6.63262 18.7304 5.33843 16.7696C4.57908 15.6182 4.13596 14.3015 3.89409 12.9922L3.89312 12.9913L3.32378 9.89459V9.89361C3.03842 8.33875 3.84088 6.73594 5.34038 6.11138C5.97952 5.84508 6.64914 5.53652 7.33843 5.1817H7.33941C8.3438 4.66593 9.24616 4.12472 10.0435 3.59283ZM12.941 5.04986C12.3619 4.65253 11.6116 4.65059 11.0152 5.04888H11.0142C10.3779 5.47333 9.67928 5.90288 8.91949 6.32232L8.13921 6.73834C7.58974 7.02118 7.05173 7.27637 6.52984 7.50592L6.01324 7.72662C5.31334 8.01809 4.90039 8.79056 5.04449 9.57721L5.6148 12.6739L5.70171 13.1016C5.92399 14.0897 6.27762 15.0145 6.79937 15.8057L7.02007 16.1309C8.14819 17.7397 9.60377 19.0947 11.1519 20.0157H11.1509C11.672 20.3254 12.3224 20.3286 12.8296 20.0284C14.4899 19.0444 16.0433 17.5607 17.2046 15.7999L17.2066 15.7969C17.8008 14.8954 18.1774 13.8216 18.3882 12.6817L18.3892 12.6807L18.9556 9.63287L18.9761 9.48638C19.0479 8.75785 18.6448 8.06813 17.9752 7.78912L17.9742 7.78814C17.1366 7.43904 16.2453 7.01929 15.3228 6.51471V6.51373C14.446 6.03448 13.652 5.53796 12.941 5.04986Z" fill="black"/>
<path d="M11.203 15.362C10.769 15.362 10.361 15.193 10.054 14.886L8.257 13.089C7.915 12.748 7.914 12.193 8.257 11.852C8.6 11.511 9.154 11.51 9.494 11.852L11.204 13.561L14.507 10.257C14.849 9.91499 15.403 9.91499 15.745 10.257C16.086 10.599 16.087 11.153 15.745 11.494L12.353 14.886C12.045 15.193 11.637 15.362 11.204 15.362H11.203Z" fill="black"/>
</svg>

<!-- This Source Code Form is subject to the terms of the Mozilla Public
   - License, v. 2.0. If a copy of the MPL was not distributed with this
   - file, You can obtain one at http://mozilla.org/MPL/2.0/. -->
<svg xmlns="http://www.w3.org/2000/svg" width="24" height="24" fill="none" viewBox="0 0 24 24">
    <path fill="#000" d="M10.044 3.593a3.45 3.45 0 0 1 3.887.014c.5.344 1.044.691 1.63 1.033l.602.34.643.34a26 26 0 0 0 1.842.853 3.41 3.41 0 0 1 2.028 3.78L20.11 13c-.241 1.303-.685 2.614-1.44 3.76l-.002.004c-1.3 1.972-3.046 3.645-4.945 4.77a3.4 3.4 0 0 1-3.465-.013c-1.89-1.124-3.624-2.79-4.919-4.75-.759-1.152-1.202-2.468-1.444-3.778l-.57-3.097v-.001C3.038 8.339 3.84 6.736 5.34 6.11a27 27 0 0 0 1.998-.93h.001a28 28 0 0 0 2.704-1.588M12.94 5.05c-.58-.397-1.33-.4-1.926-.001a29 29 0 0 1-2.096 1.273l-.78.416q-.825.424-1.61.768l-.516.22c-.7.292-1.113 1.065-.969 1.851l.57 3.097.088.428c.222.988.576 1.912 1.097 2.704l.221.325c1.128 1.609 2.584 2.964 4.132 3.885h-.001c.521.31 1.171.313 1.679.012 1.66-.984 3.213-2.467 4.375-4.228l.002-.003c.594-.902.97-1.975 1.181-3.115l.001-.001.567-3.048.02-.147a1.655 1.655 0 0 0-1-1.697h-.002a28 28 0 0 1-2.651-1.274v-.001A28 28 0 0 1 12.94 5.05" />
    <path fill="#000" d="M11.203 15.362c-.434 0-.842-.169-1.149-.476l-1.797-1.797a.875.875 0 0 1 1.237-1.237l1.71 1.709 3.303-3.304a.875.875 0 0 1 1.238 1.237l-3.392 3.392a1.62 1.62 0 0 1-1.149.476z" />
</svg>
